X: 1
T: Great Grass Sea, The
M: 4/4
L: 1/8
R: hornpipe
K: Gmaj
|:&quot;D&quot;dc|&quot;Bm&quot;B2 Bc &quot;Em&quot; BA G2|&quot;G&quot;DGBd &quot;Am&quot; c2 AB|&quot;C&quot;cBAG &quot;G&quot;(3ABA GD|&quot;C&quot;cBAG &quot;D&quot;A2 dc |
&quot;Em&quot; BABG &quot;G&quot;DGBd |&quot;Am&quot;edcB &quot;Em&quot;E2 AB |&quot;C&quot;cBAG &quot;Em&quot;BAGF|&quot;C&quot;A2 G2 &quot;G&quot;G2 :|
|:&quot;Bm&quot;Bd|&quot;Em&quot;edgd edgd|&quot;Em&quot; edcB &quot;D&quot; A2 AB|&quot;Am&quot; cAeA cAeA |&quot;Bm&quot; BABc d2 Bc|
&quot;Bm&quot;dcBd &quot;Am&quot;cBAc|&quot;Em&quot;BAGB &quot;G&quot;D2 ((3 FED)|&quot;C&quot;GBAc &quot;Bm&quot;Bdce |&quot;C&quot;((3ABA) &quot;G&quot;GF G2 :|
